my_site/img/clients/fa-brands_reddit-alien.svg

<svg width="77" height="73" viewBox="0 0 77 73" fill="none" xmlns="http://www.w3.org/2000/svg">
<g clip-path="url(#clip0)">
<path d="M67.926 28.1614C65.531 28.1614 63.4234 29.1556 61.8747 30.7111C56.1747 26.7503 48.4949 24.2006 39.9848 23.928L44.4075 3.91556L58.4898 7.09061C58.4898 10.5543 61.2999 13.3766 64.7486 13.3766C68.2613 13.3766 71.0873 10.4741 71.0873 7.01043C71.0873 3.54674 68.2772 0.644287 64.7486 0.644287C62.2898 0.644287 60.1663 2.1356 59.1125 4.17213L43.5613 0.70843C42.7789 0.499966 42.0125 1.06121 41.805 1.84696L36.9512 23.912C28.505 24.2648 20.905 26.8144 15.189 30.7752C13.6403 29.1556 11.4529 28.1614 9.0579 28.1614C0.18059 28.1614 -2.72529 40.124 5.4016 44.2131C5.1142 45.4799 4.98647 46.8269 4.98647 48.1739C4.98647 61.6118 20.0587 72.5 38.5638 72.5C57.1487 72.5 72.2209 61.6118 72.2209 48.1739C72.2209 46.8269 72.0772 45.4158 71.726 44.149C79.6932 40.0438 76.7554 28.1614 67.926 28.1614ZM18.2865 45.063C18.2865 41.5351 21.0966 38.6968 24.6251 38.6968C28.0739 38.6968 30.884 41.5191 30.884 45.063C30.884 48.5267 28.0739 51.349 24.6251 51.349C21.1125 51.365 18.2865 48.5267 18.2865 45.063ZM52.5024 60.0563C46.6907 65.8933 30.2932 65.8933 24.4814 60.0563C23.8428 59.4951 23.8428 58.5008 24.4814 57.8594C25.0403 57.2982 26.0302 57.2982 26.589 57.8594C31.0276 62.4296 45.7487 62.5098 50.3789 57.8594C50.9377 57.2982 51.9276 57.2982 52.4865 57.8594C53.1411 58.5008 53.1411 59.4951 52.5024 60.0563ZM52.3747 51.365C48.926 51.365 46.1159 48.5427 46.1159 45.079C46.1159 41.5512 48.926 38.7129 52.3747 38.7129C55.8873 38.7129 58.7134 41.5351 58.7134 45.079C58.6974 48.5267 55.8873 51.365 52.3747 51.365Z" fill="#737373"/>
</g>
<defs>
<clipPath id="clip0">
<rect width="76" height="72" fill="white" transform="translate(0.5 0.5)"/>
</clipPath>
</defs>
</svg>

<svg width="77" height="73" fill="none" xmlns="http://www.w3.org/2000/svg"><g clip-path="url(#clip0)"><path d="M67.926 28.161c-2.395 0-4.503.995-6.051 2.55-5.7-3.96-13.38-6.51-21.89-6.783l4.422-20.012L58.49 7.09c0 3.463 2.81 6.286 6.259 6.286 3.512 0 6.338-2.903 6.338-6.367 0-3.463-2.81-6.366-6.338-6.366-2.46 0-4.583 1.492-5.636 3.528L43.56.708c-.782-.208-1.548.353-1.756 1.139L36.95 23.912c-8.446.353-16.046 2.902-21.762 6.863a8.468 8.468 0 00-6.131-2.614c-8.877 0-11.783 11.963-3.656 16.052-.288 1.267-.416 2.614-.416 3.96C4.986 61.613 20.06 72.5 38.564 72.5c18.585 0 33.657-10.888 33.657-24.326 0-1.347-.144-2.758-.495-4.025 7.967-4.105 5.03-15.988-3.8-15.988zm-49.64 16.902c0-3.528 2.81-6.366 6.34-6.366 3.448 0 6.258 2.822 6.258 6.366 0 3.464-2.81 6.286-6.259 6.286-3.512.016-6.338-2.822-6.338-6.286zm34.216 14.993c-5.811 5.837-22.209 5.837-28.02 0-.64-.56-.64-1.555 0-2.197.558-.56 1.548-.56 2.107 0 4.439 4.57 19.16 4.65 23.79 0 .559-.56 1.549-.56 2.108 0 .654.642.654 1.636.015 2.197zm-.127-8.691c-3.449 0-6.26-2.822-6.26-6.286 0-3.528 2.811-6.366 6.26-6.366a6.327 6.327 0 016.338 6.366c-.016 3.448-2.826 6.286-6.338 6.286z" fill="#737373"/></g><defs><clipPath id="clip0"><path fill="#fff" transform="translate(.5 .5)" d="M0 0h76v72H0z"/></clipPath></defs></svg>
